X:1
T:Title
%%score { ( 1 3 5 ) | ( 2 4 ) }
L:1/8
M:3/4
K:Db
V:1 treble nm="Grand Piano"
V:3 treble 
V:5 treble 
V:2 bass 
V:4 bass 
V:1
 z2 z2[Q:1/4=100] F>F | F3 E D>[GB] | [FA]2 [DF]2 [FA]>[FA] | [FA]3 [GB] [FA]>F | E4 F>F | %5
 F3 E D>[GB] | [FA]2 F2 F>F | %7
[M:27/32] z/4 z/4 z/4 z/4 z/4 z/4 z/4 z/4 z/4 z/4 z/4 z/4 z/4 z/4 z/ c/4-c/4-c/4-c/4-c/4-c/4-c/-<c/ z/4 | %8
[M:2/4] [A,CA]4 |[M:4/4] (5:4:4A2 A/ d/- d2- d3- d3/4 z/4 | z8 | z2 c4- c3/2-c/4 z/4 | %12
 (5:4:5A2 G/ F/-F3/2-[DF]/- [DF]4 | (5:4:4A2 A/ B/- B2- B3- B3/4 z/4 | %14
 (5:4:4[Gc]2 [Gc]/ [Fd]/- [Fd]2 [Fd]4 |[M:9/8] z3 z3 z z/ [FA]/-[FA]/4 z/4 z/ |[M:2/4] z4 | z4 |] %18
V:2
 z2 z2 [D,A,D]>[D,A,D] | [D,A,D]3 [D,G,D] [D,F,]>[D,D] | [D,D]2 [D,A,]2 [D,D]>[D,D] | %3
 [D,D]3 [D,D] [D,D]>[D,A,D] | [A,C]4 [D,A,D]>[D,A,D] | [D,A,D]3 [D,G,D] [D,F,]>[D,D] | %6
 [D,D]2 [D,A,D]2 [D,A,D]>[D,A,D] | %7
[M:27/32] [E,A,C]/4-[E,A,C]/4-[E,A,C]/4-[E,A,C]/4-[E,A,C]/4-[E,A,C]/4-[E,A,C]/4-[E,A,C]/4-[E,A,C]/-<[E,A,C]/[E,A,E]/-<[E,A,E]/E/4-E/4-E/4-E/4-E/-<E/-[E,-=G,-D-E]/[E,G,D]/4 | %8
[M:2/4] A,,4 |[M:4/4][K:treble] (5:4:4G2 G/ F/- F2[K:bass] z4 | (5:4:4C,2 D,/ A,,/- A,,2 A,,4 | %11
 (5:4:4A2 A/ G/- G2 z4 | (5:4:5[A,CF]2[K:bass] [A,CE]/ [D,A,D]/-[D,A,D]3/2D,/ z4 | %13
 (5:4:4F2[K:treble] F/ G/- G2[K:bass] z4 | (5:4:4[E,A,]2 [E,A,]/ [D,A,]/- [D,A,]2 [D,A,]4 | %15
[M:9/8][K:treble] (4:3:4D2 G/[K:bass]F/-F- F-[D,-D-F]/<[D,D]/-[D,D]3/4 z/4 (4:3:4[D,D]2 [D,A,]/[A,,A,]/-[A,,A,]- | %16
[M:2/4] [A,,A,]-[A,,A,]/<[A,,G,A,]/ [D,F,A,]2- | [D,F,A,]2- [D,F,A,]/4 z/4 z/ z |] %18
V:3
 x6 | x6 | x6 | x6 | x6 | x6 | x6 | %7
[M:27/32] E/4-E/4-E/4-E/4-E/4-E/4-E/4-E/4-E/-<E/c/-<c/ z/4 z/4 z/4 z/4 z/4 z/4 z/ B3/4 | %8
[M:2/4] x4 |[M:4/4] z4 (5:4:5[A,F]2 [A,F]/ [A,F]/-[A,F]3/2[A,FA]/ | %10
 (5:4:4[A,EG]2 [A,DF]/ [A,DF]/- [A,DF]2 [A,CE]4- | [A,CE]3/4 z/4 z z2 (5:4:5G2 G/ G/-G3/2B/ | %12
 z4 (3:2:2C2 B, A,2- | A,3/4 z/4 z z2 (5:4:5G2 G/ G/-G3/2B/ | x8 | %15
[M:9/8] (4:3:4F2 B/A/-A- A3- A3/2 z/ [EG]- |[M:2/4] [EG]-[EG]/<C/ D2- | D2- D/4 z/4 z/ z |] %18
V:4
 x6 | x6 | x6 | x6 | x6 | x6 | x6 | %7
[M:27/32] z/4 z/4 z/4 z/4 z/4 z/4 z/4 z/4 z/4 z/4 z/4 z/4 z/4 z/4 z/ [E,=G,]/4-[E,G,]/4-[E,G,]/4-[E,G,]/4-[E,G,]/-<[E,G,]/ z/4 z/ | %8
[M:2/4] x4 |[M:4/4][K:treble] z4[K:bass] (5:4:5D,2 D,/ D,/-D,3/2D,/ | x8 | %11
 z4 (5:4:5[A,E]2 [A,E]/ [A,E]/-[A,E]3/2[A,CG]/ | z4[K:bass] (3:2:2D,2 D, D,2- | %13
 D,3/4 z/4 z[K:treble] z2[K:bass] (5:4:5[G,D]2 [G,D]/ [G,D]/-[G,D]3/2[G,DG]/ | x8 | %15
[M:9/8][K:treble] z3[K:bass] z z z/ [D,D]/- [D,D]/4 z/4 z/ z z |[M:2/4] x4 | x4 |] %18
V:5
 x6 | x6 | x6 | x6 | x6 | x6 | x6 |[M:27/32] x27/4 |[M:2/4] x4 |[M:4/4] x8 | x8 | x8 | x8 | x8 | %14
 x8 |[M:9/8] z3 z F>F F3/2-F/4 z/4 z |[M:2/4] x4 | x4 |] %18

